src/assets/growth_cicle.svg

<svg width="65" height="66" viewBox="0 0 65 66" fill="none" xmlns="http://www.w3.org/2000/svg">
<g clip-path="url(#clip0_5_511)">
<g clip-path="url(#clip1_5_511)">
<g clip-path="url(#clip2_5_511)">
<g opacity="0.4">
<path d="M20.9668 31.0378C20.9668 33.3115 22.7385 35.1718 24.8941 35.1718H29.3234C31.2133 35.1718 32.7487 33.5477 32.7487 31.5693C32.7487 29.4137 31.8038 28.6459 30.416 28.144L23.3291 25.6635C21.9117 25.1616 20.9668 24.3938 20.9668 22.2382C20.9668 20.2598 22.5023 18.6357 24.3921 18.6357H28.8214C31.0066 18.6652 32.7783 20.496 32.7783 22.7697" stroke="#F7931E" stroke-width="4.4293" stroke-linecap="round" stroke-linejoin="round"/>
<path d="M26.8721 35.3184V37.5036" stroke="#F7931E" stroke-width="4.4293" stroke-linecap="round" stroke-linejoin="round"/>
<path d="M26.8721 16.303V18.6063" stroke="#F7931E" stroke-width="4.4293" stroke-linecap="round" stroke-linejoin="round"/>
</g>
<path d="M26.8434 50.4669C39.8738 50.4669 50.4369 39.9038 50.4369 26.8734C50.4369 13.8431 39.8738 3.28003 26.8434 3.28003C13.8131 3.28003 3.25 13.8431 3.25 26.8734C3.25 39.9038 13.8131 50.4669 26.8434 50.4669Z" stroke="#F7931E" stroke-width="4.4293" stroke-linecap="round" stroke-linejoin="round"/>
<path opacity="0.4" d="M35.6738 56.0774C38.3314 59.8276 42.6721 62.2785 47.633 62.2785C55.6943 62.2785 62.2497 55.7231 62.2497 47.6618C62.2497 42.76 59.8283 38.4193 56.1372 35.7617" stroke="#F7931E" stroke-width="4.4293" stroke-linecap="round" stroke-linejoin="round"/>
</g>
</g>
</g>
<defs>
<clipPath id="clip0_5_511">
<rect width="64" height="65" fill="white" transform="translate(0.75 0.280029)"/>
</clipPath>
<clipPath id="clip1_5_511">
<rect width="64" height="65" fill="white" transform="translate(0.75 0.280029)"/>
</clipPath>
<clipPath id="clip2_5_511">
<rect width="64" height="65" fill="white" transform="translate(0.75 0.280029)"/>
</clipPath>
</defs>
</svg>

<svg width="65" height="66" fill="none" xmlns="http://www.w3.org/2000/svg"><g clip-path="url(#a)"><g clip-path="url(#b)"><g clip-path="url(#c)" stroke="#F7931E" stroke-width="4.429" stroke-linecap="round" stroke-linejoin="round"><g opacity=".4"><path d="M20.967 31.038c0 2.274 1.771 4.134 3.927 4.134h4.43c1.89 0 3.425-1.624 3.425-3.603 0-2.155-.945-2.923-2.333-3.425l-7.087-2.48c-1.417-.502-2.362-1.27-2.362-3.426 0-1.978 1.535-3.602 3.425-3.602h4.43c2.185.03 3.956 1.86 3.956 4.134M26.872 35.318v2.186M26.872 16.303v2.303"/></g><path d="M26.843 50.467c13.03 0 23.594-10.563 23.594-23.594 0-13.03-10.563-23.593-23.594-23.593-13.03 0-23.593 10.563-23.593 23.593s10.563 23.594 23.593 23.594Z"/><path opacity=".4" d="M35.674 56.077c2.657 3.75 6.998 6.202 11.959 6.202 8.061 0 14.617-6.556 14.617-14.617 0-4.902-2.422-9.243-6.113-11.9"/></g></g></g><defs><clipPath id="a"><path fill="#fff" transform="translate(.75 .28)" d="M0 0h64v65H0z"/></clipPath><clipPath id="b"><path fill="#fff" transform="translate(.75 .28)" d="M0 0h64v65H0z"/></clipPath><clipPath id="c"><path fill="#fff" transform="translate(.75 .28)" d="M0 0h64v65H0z"/></clipPath></defs></svg>
